X:51
T:Miss Elders Reel
C:Robert Petrie
S:Petrie's Collection of Strathspey Reels and Country Dances &c., 1790
Z:Steve Wyrick , 3/20/04
N:Petrie's First Collection, page 22
L:1/8
M:C
R:Reel
K:Em
B|E/E/E BE GEBE   |GEBG F(DD)F|E/E/E BE GEeB| cABF    GEE :|
B|efga     b(gTfe)|defg afdf  |efga  b(gTfe)| Bbfa    geef |
  efga     b(gTfe)|defg afdf  |bgaf  gef^d  |.e(cTBA) GEE |]
